X:1
T:Try to Carry Sunshine
T:Try to Carry Sunshine
T:Adam Geibel
T:Fanny A. Kimball, 1902, alt.
T:Public Domain Courtesy of the Cyber Hymnal™
T:Public Domain Courtesy of the Cyber Hymnal™
C:Adam Geibel
Z:Public Domain
Z:Courtesy of the Cyber Hymnal™
%%score ( 1 2 ) ( 3 4 )
L:1/8
Q:1/4=100
M:4/4
K:Ab
V:1 treble 
V:2 treble 
V:3 bass 
V:4 bass 
V:1
 [Ec]>[DB] [CA]>[DB] [Ec]2 [Ec]2 | [Ed]>[Ee] [Ed]>[Ec] [EB]4 | [EB]>[EA] [EG]>[EA] [EB]2 [EB]2 | %3
w: 1.~Try to car- ry sun- shine|Ev- ery- where you go;|Try to bright- en, some way,|
w: 2.~Try to be a sun- beam|Shin- ing for the Lord,|Liv- ing in His pre- sence,|
w: 3.~If you walk with Je- sus,|Joy- ful- ly each day,|Try- ing to tell oth- ers|
w: 4.~If your life is glad- some,|Full of joy and love,|It will point to Je- sus,|
 [Ec]>[Fd] [Ec]>[DB] [CA]4 | [Ec]>[DB] [CA]>[DB] [Ec]2 [Ec]2 | [Fd]>[Fe] [Fd]>[Ec] [DB]4 | %6
w: Lives of those you know.|If the day be drea- ry,|And the way seem long,|
w: Feed- ing on His word.|Storms may o- ver- take you,|Fear- ful in their might;|
w: Of the bless- èd way,|Nev- er fear temp- ta- tion,|He’ll not let you fall;|
w: And the life a- bove.|If you are but faith- ful|Thro’ life’s lit- tle day,|
 B>A G>F E>F G>A | [Ac]2 [GB]2 [EA]4 ||"^Refrain" e4- e>A B>c | d2 d4 z2 | d4- d>B c>d | c6 z2 | %12
w: Try to make it bright- er By a|bit of song.|||||
w: Trust to Je- sus’ guid- ing, For with|Him ’tis light.|Try * to car- ry|sun- shine|Ev- * ery- where you|go;|
w: Christ, the Lord, is near you When on|Him you call.|||||
w: You may show to oth- ers God’s ap-|point- ed way.|||||
 [=Ec]>[EB] [EA]>[EG] [FA]2 [FA]2 | [=DB]>[DA] [DG]>[DF] [EG]4 | %14
w: ||
w: ||
w: ||
w: ||
 [EA]>[EA] [EB]>[EB] [Ec]>[_Gc] [Fd]>[Af] | [Ae]2 [EG]2 [EA]4 |] %16
w: ||
w: ||
w: ||
w: ||
V:2
 x8 | x8 | x8 | x8 | x8 | x8 | B>A G>F E>F G>A | x8 || (E>EE>E E2) E2 | (G>G) (G>G G2) x2 | %10
 (G>GG>G G2) E2 | (E>EE>E E2) x2 | x8 | x8 | x8 | x8 |] %16
V:3
 [A,,A,]>[A,,A,] [A,,A,]>[A,,A,] [A,,A,]2 [A,,A,]2 | [E,B,]>[E,C] [E,B,]>[E,A,] [E,G,]4 | %2
w: ||
 [E,G,]>[E,F,] E,>[E,F,] [E,G,]2 [E,G,]2 | [A,,A,]>[A,,A,] [A,,A,]>[A,,A,] [A,,E,]4 | %4
w: * * Try * * *||
 [A,,A,]>[A,,A,] [A,,A,]>[A,,A,] [A,,A,]2 [F,=A,]2 | [B,,B,]>[B,,B,] [B,,B,]>[B,,B,] [B,,F,]4 | %6
w: ||
 B,>A, G,>F, E,>F, G,>A, | [E,E]2 [E,D]2 [A,,C]4 || [A,C]>[A,C] [A,C]>[A,C] [A,C]2 [A,C]2 | %9
w: to car- ry sun- shine Ev- ery- where||you go; Try to car- ry|
 [E,B,]>[E,B,] [E,B,]>[E,B,] [E,B,]2 z2 | [E,B,]>[E,B,] [E,B,]>[E,B,] [E,B,]2 [E,G,]2 | %11
w: sun- shine Ev- ery- where|you go; Try to bright- en,|
 [A,,A,]>[A,,A,] [A,,A,]>[A,,A,] [A,,A,]2 z2 | [C,G,]>[C,G,] [C,C]>[C,C] [F,C]2 [F,C]2 | %13
w: some way, Lives of those|you know; Try to car- ry|
 [B,,B,]>[B,,B,] [B,,B,]>[B,,B,] B,4 | [C,A,]>[C,A,] [E,G,]>[E,G,] A,>A, [D,A,]>[D,D] | %15
w: sun- shine Ev- ery- where|you go. * * * * * *|
 [E,C]2 [E,D]2 [A,,C]4 |] %16
w: |
V:4
 x8 | x8 | x2 E,3/2 x9/2 | x8 | x8 | x8 | B,>A, G,>F, E,>F, G,>A, | x8 || x8 | x8 | x8 | x8 | x8 | %13
 x4 (E,2 D,2) | x4 A,>A, x2 | x8 |] %16

